X: 112
T:Good One Waltz,A. JaW.112
M:3/8
Q:1/4=30
S:James Winder Ms, Lancashire, 1835-41
R:Waltz
O:England
A:Wyresdale,Lancashire
H:1/8
Z:vmp.Chris Partington, Aug 2004
K:D
dde|fdf|gec|dfa|dde|fdf|gec|d2:|!
|:a|(a^g=g)|fdf|gec|dfa|(a^g=g)|fdf|gec|d2:|]
